X:1
T: Mrs. Sherrif Cameron of Elgin
C:William Marshall
R:Strathspey
Q: 128
K:Eb
M:4/4
L:1/16
|:e2|B3A GE3 B,D3 G,E3|DF3 F3G A4 A2c2|B3A GE3 B,D3 G,E3|Ge3 e3G B4 B2e2|
B3A GE3 B,D3 G,E3|DF3 F3G A4 A2c2|B3A GE3 B,D3 G,E3|Ge3 e3G B4 B2e2|
edcB G3e B3e G3E|DF3 F3G A4 A2cd|e3B g3e fd3 e3E|GB3 e3G B4 B2cd|
edcB G3E e3E G3E|DF3 F3G A4 A2c2|Begf edcB e3B ce3|B3G EFGF E4 E2:|
